X: 37985
T: Spatter The Dew
R: slip jig
M: 9/8
K: Dmajor
E|:FAF FEF d3|FAF FEF AFE|FAF FEF dfa|edc BAF AFE:|
|:A2 d cec d2 B|A2 d cea fdB|A2 d cec dfa|edc BAF AFE:|
|:dAF FAF d3|dAF FAF AFE|dAF FAF dfa|edc BAF AFE:|
|:Ace Ace d3|Ace Ace fdB|Ace Ace dfa|edc BAF AFE:|

